X:1
T:Title
%%score { ( 1 4 ) | ( 2 3 ) }
L:1/8
Q:1/4=100
M:4/4
K:F
V:1 treble nm="Grand Piano"
V:4 treble 
V:2 bass 
V:3 bass 
V:1
 F3 F G2 G2 | B2 B2 [GB]2 A2 | B2 AG c2 B2 | A2 z2 z4 | A3 A B2 c2 | d2 c2 c2 [EB]2 | %6
w: E.~P.~Tate * * *||||||
 [FA]2 [EG][_EA] [DB]2 [DG]2 | z2 E2 z4 | [Fd]3 [Fd] c2 A2 | G2 [FA]2 [FB]4 | %10
w: ||||
 [EB]3 [CEB] [CFA]2 [B,DG]2 |[M:8/4] [A,CF]2 [G,CE]2 [F,A,CF]4 z8 |[M:4/4] [B,DF]8 | [F,A,CF]8 |] %14
w: ||||
V:2
 [F,A,]3 [F,A,] [F,B,F]2 [F,B,F]2 | [F,DF]2 [F,DF]2 [E,C]2[K:treble] [F,CF]2 | %2
 [F,DF]2 C-[B,CE] [A,CF]2[K:bass] [G,CE]2 | .[F,CF]2 z D C,4 | [F,A,F]3 [F,CF] [G,CE]2 [A,CF]2 | %5
 [B,F]2 [A,CF]2[K:bass] [G,CE]2 [C,C]2 | [F,C]2 [F,C]2 [B,,B,]2 [B,,B,]2 | %7
 [C,B,]2 .[C,A,C]2 [F,,F,]4 | [B,,B,]3 [D,B,] [F,A,F]2 [F,CF]2 | [E,C]2 [_E,C]2 [D,B,]4 | %10
 [C,G,]3 C, F,2 B,,2 |[M:8/4] C,2 C,2 F,,4 z8 |[M:4/4] B,,8 | F,,8 |] %14
V:3
 x8 | x6[K:treble] x2 | z2 .[F,F]2 z4[K:bass] | z2 A,,2 z4 | x8 | x4[K:bass] x4 | x8 | x8 | x8 | %9
 x8 | x8 |[M:8/4] x16 |[M:4/4] x8 | x8 |] %14
V:4
 x8 | x8 | x8 | z C[CE]F [B,EG]4 | x8 | x8 | x8 | D2 z G, [A,CF]4 | x8 | x8 | x8 |[M:8/4] x16 | %12
[M:4/4] x8 | x8 |] %14

